svg/l/MQ-UNF.svg

<svg fill="none" height="24" viewBox="0 0 32 24" width="32" xmlns="http://www.w3.org/2000/svg"><path d="m0 0h32v24h-32z" fill="#21428e"/><path clip-rule="evenodd" d="m12.0891 4.27294c0 .08254.0484.13431.0858.17442.063.06748.0952.10199-.1851.19454-.4221.14759-1.5642.34436-2.35868.31977-.15192 0-.41908-.05328-.65618-.10056-.18914-.03772-.35915-.07162-.43628-.07162-.10394.01287.13206.1335.32377.2315.17464.08927.31253.15976.12315.11286-.54623-.14759-.869-.19678-.44692.07379.32278.19678 1.0428.19677 2.06074.07379.2085-.02582.5948-.09906.9687-.16995.3385-.06418.6668-.12644.8438-.14981.1426-.01412.2033.05281.2573.1124.0401.04421.0765.08437.14.08437 1.3407.07379 3.7243.0246 4.7671-.12298.869-.12299 1.1917-.07379 1.44.22137.4966.56574-.0248 1.05768-1.44 1.35285-1.738.36896-2.4581.68872-3.1284 1.40204-1.6139 1.7218.2731 3.66498 3.7987 3.93558 2.0608.1721 3.4015.5657 3.0788.8855-.1242.123-1.4897.3197-3.0539.4427-3.4016.2706-4.9161.7379-6.2072 1.9678-.72.6887-.9683 1.1069-.9683 1.6726 0 .3268 0 .5179-.0942.6297-.1326.1574-.4521.1574-1.22169.1574h-.00002c-.6952 0-1.66351-.0984-2.11043-.246-.6952-.1721-.79451-.1721-.54622.123.49657.5904 1.9118 1.1069 3.07876 1.1069.8938 0 1.3904.1722 2.1849.7379 1.589 1.1561 3.4015 1.5988 6.4058 1.5742 3.9477-.0246 6.2071-1.0576 6.2071-2.804 0-1.3037-1.4897-2.0662-4.5933-2.3368-1.5642-.1476-4.6429.0984-5.9837.492-.2483.0738.0249-.0984.6207-.3936.7201-.3444 1.9118-.5903 3.5257-.7379 3.5753-.2952 5.1892-1.0823 5.1892-2.5581 0-1.4267-1.5891-2.2384-4.9906-2.5581-3.3518-.29519-3.6001-.88552-.7697-1.74642 2.0112-.59033 3.0291-1.47583 3.0291-2.6811 0-1.84479-1.0179-2.45971-4.4195-2.6319-2.0607-.09838-2.5573-.04919-3.4511.36896-.5959.27057-1.0677.66413-1.0677.8609zm2.9476-.19294c-.116.225-.4254.45-.6187.45-.232 0-.2707-.225-.1547-.45.116-.27.4254-.45.6187-.45.232 0 .2707.18.1547.45zm2.4565 15.0923c1.6424.1418 4.3389-.2834 4.7556-.7652.1471-.1701-.8653-.6093-1.3311-.8078-1.6676-.5158-4.9689-.326-6.6113.4109-.5883.2835 1.3728.9637 3.1868 1.1621z" fill="#fff" fill-rule="evenodd"/></svg>

<svg width="32" height="24" viewBox="0 0 32 24" fill="none" xmlns="http://www.w3.org/2000/svg">
<rect width="32" height="24" fill="#21428E"/>
<path fill-rule="evenodd" clip-rule="evenodd" d="M12.0891 4.27294C12.0891 4.35548 12.1375 4.40725 12.1749 4.44736C12.2379 4.51484 12.2701 4.54935 11.9898 4.6419C11.5677 4.78949 10.4256 4.98626 9.63112 4.96167C9.4792 4.96167 9.21204 4.90839 8.97494 4.86111L8.97494 4.86111C8.7858 4.82339 8.61579 4.78949 8.53866 4.78949C8.43472 4.80236 8.67072 4.92299 8.86243 5.02099C9.03707 5.11026 9.17496 5.18075 8.98558 5.13385C8.43935 4.98626 8.11658 4.93707 8.53866 5.20764C8.86144 5.40442 9.58146 5.40441 10.5994 5.28143C10.8079 5.25561 11.1942 5.18237 11.5681 5.11148C11.9066 5.0473 12.2349 4.98504 12.4119 4.96167C12.5545 4.94755 12.6152 5.01448 12.6692 5.07407C12.7093 5.11828 12.7457 5.15844 12.8092 5.15844C14.1499 5.23223 16.5335 5.18304 17.5763 5.03546C18.4453 4.91247 18.768 4.96167 19.0163 5.25683C19.5129 5.82257 18.9915 6.31451 17.5763 6.60968C15.8383 6.97864 15.1182 7.2984 14.4479 8.01172C12.834 9.73352 14.721 11.6767 18.2466 11.9473C20.3074 12.1194 21.6481 12.513 21.3254 12.8328C21.2012 12.9558 19.8357 13.1525 18.2715 13.2755C14.8699 13.5461 13.3554 14.0134 12.0643 15.2433C11.3443 15.932 11.096 16.3502 11.096 16.9159C11.096 17.2427 11.096 17.4338 11.0018 17.5456C10.8692 17.703 10.5497 17.703 9.78011 17.703H9.78009C9.08489 17.703 8.11658 17.6046 7.66966 17.457C6.97446 17.2849 6.87515 17.2849 7.12344 17.58C7.62001 18.1704 9.03524 18.6869 10.2022 18.6869C11.096 18.6869 11.5926 18.8591 12.3871 19.4248C13.9761 20.5809 15.7886 21.0236 18.7929 20.999C22.7406 20.9744 25 19.9414 25 18.195C25 16.8913 23.5103 16.1288 20.4067 15.8582C18.8425 15.7106 15.7638 15.9566 14.423 16.3502C14.1747 16.424 14.4479 16.2518 15.0437 15.9566C15.7638 15.6122 16.9555 15.3663 18.5694 15.2187C22.1447 14.9235 23.7586 14.1364 23.7586 12.6606C23.7586 11.2339 22.1695 10.4222 18.768 10.1025C15.4162 9.80731 15.1679 9.21698 17.9983 8.35608C20.0095 7.76575 21.0274 6.88025 21.0274 5.67498C21.0274 3.83019 20.0095 3.21527 16.6079 3.04308C14.5472 2.9447 14.0506 2.99389 13.1568 3.41204C12.5609 3.68261 12.0891 4.07617 12.0891 4.27294ZM15.0367 4.08C14.9207 4.305 14.6113 4.53 14.418 4.53C14.186 4.53 14.1473 4.305 14.2633 4.08C14.3793 3.81 14.6887 3.63 14.882 3.63C15.114 3.63 15.1527 3.81 15.0367 4.08ZM17.4932 19.1723C19.1356 19.3141 21.8321 18.8889 22.2488 18.4071C22.3959 18.237 21.3835 17.7978 20.9177 17.5993C19.2501 17.0835 15.9488 17.2733 14.3064 18.0102C13.7181 18.2937 15.6792 18.9739 17.4932 19.1723Z" fill="white"/>
</svg>
